docs/concepts/automation/img/default_workflow.svg

<svg xmlns="http://www.w3.org/2000/svg" xmlns:xl="http://www.w3.org/1999/xlink" width="616" height="266pt" version="1.1" viewBox="352 219 462 266"><metadata>Produced by OmniGraffle 7.2.2</metadata><defs><font-face x-height="517" ascent="975.006" cap-height="714" descent="-216.995" font-family="Helvetica Neue" font-size="12" font-weight="bold" panose-1="2 0 8 3 0 0 0 9 0 4" slope="0" underline-position="-100" underline-thickness="50" units-per-em="1000"><font-face-src><font-face-name name="HelveticaNeue-Bold"/></font-face-src></font-face><marker id="FilledArrow_Marker" color="#a5a5a5" markerHeight="8" markerUnits="strokeWidth" markerWidth="10" orient="auto" overflow="visible" viewBox="-1 -4 10 8"><g><path fill="currentColor" stroke="currentColor" stroke-width="1" d="M 8 0 L 0 -3 L 0 3 Z"/></g></marker><font-face x-height="517" ascent="951.996" cap-height="714" descent="-212.997" font-family="Helvetica Neue" font-size="8" font-weight="500" panose-1="2 0 5 3 0 0 0 2 0 4" slope="0" underline-position="-100" underline-thickness="50" units-per-em="1000"><font-face-src><font-face-name name="HelveticaNeue"/></font-face-src></font-face></defs><g fill="none" fill-opacity="1" stroke="none" stroke-dasharray="none" stroke-opacity="1"><title>Canvas 1</title><g><title>Layer 1</title><path fill="#c0ffff" d="M 363 321.5 L 512.73806 321.5 C 517.7086 321.5 521.73806 325.52944 521.73806 330.5 L 521.73806 341 C 521.73806 345.97056 517.7086 350 512.73806 350 L 363 350 C 358.02944 350 354 345.97056 354 341 L 354 330.5 C 354 325.52944 358.02944 321.5 363 321.5 Z"/><path stroke="#a5a5a5" stroke-linecap="round" stroke-linejoin="round" stroke-width="3" d="M 363 321.5 L 512.73806 321.5 C 517.7086 321.5 521.73806 325.52944 521.73806 330.5 L 521.73806 341 C 521.73806 345.97056 517.7086 350 512.73806 350 L 363 350 C 358.02944 350 354 345.97056 354 341 L 354 330.5 C 354 325.52944 358.02944 321.5 363 321.5 Z"/><text fill="#000" transform="translate(359 328.07596)"><tspan x="59.663" y="12" font-family="Helvetica Neue" font-size="12" font-weight="bold" textLength="38.412">collect</tspan></text><path fill="#dadada" d="M 653.7327 436.46356 L 803.4707 436.46356 C 808.4413 436.46356 812.4707 440.493 812.4707 445.46356 L 812.4707 455.96356 C 812.4707 460.9341 808.4413 464.96356 803.4707 464.96356 L 653.7327 464.96356 C 648.7621 464.96356 644.7327 460.9341 644.7327 455.96356 L 644.7327 445.46356 C 644.7327 440.493 648.7621 436.46356 653.7327 436.46356 Z"/><path stroke="#a5a5a5" stroke-linecap="round" stroke-linejoin="round" stroke-width="3" d="M 653.7327 436.46356 L 803.4707 436.46356 C 808.4413 436.46356 812.4707 440.493 812.4707 445.46356 L 812.4707 455.96356 C 812.4707 460.9341 808.4413 464.96356 803.4707 464.96356 L 653.7327 464.96356 C 648.7621 464.96356 644.7327 460.9341 644.7327 455.96356 L 644.7327 445.46356 C 644.7327 440.493 648.7621 436.46356 653.7327 436.46356 Z"/><text fill="#000" transform="translate(649.7327 443.0395)"><tspan x="56.207" y="12" font-family="Helvetica Neue" font-size="12" font-weight="bold" textLength="45.324">cleanup</tspan></text><path fill="#dadada" d="M 363 436.46356 L 512.73806 436.46356 C 517.7086 436.46356 521.73806 440.493 521.73806 445.46356 L 521.73806 455.96356 C 521.73806 460.9341 517.7086 464.96356 512.73806 464.96356 L 363 464.96356 C 358.02944 464.96356 354 460.9341 354 455.96356 L 354 445.46356 C 354 440.493 358.02944 436.46356 363 436.46356 Z"/><path stroke="#a5a5a5" stroke-linecap="round" stroke-linejoin="round" stroke-width="3" d="M 363 436.46356 L 512.73806 436.46356 C 517.7086 436.46356 521.73806 440.493 521.73806 445.46356 L 521.73806 455.96356 C 521.73806 460.9341 517.7086 464.96356 512.73806 464.96356 L 363 464.96356 C 358.02944 464.96356 354 460.9341 354 455.96356 L 354 445.46356 C 354 440.493 358.02944 436.46356 363 436.46356 Z"/><text fill="#000" transform="translate(359 443.0395)"><tspan x="40.991" y="12" font-family="Helvetica Neue" font-size="12" font-weight="bold" textLength="75.756">cleanup_plan</tspan></text><path fill="#c0ffff" d="M 653.73266 321.5 L 803.4707 321.5 C 808.4413 321.5 812.4707 325.52944 812.4707 330.5 L 812.4707 341 C 812.4707 345.97056 808.4413 350 803.4707 350 L 653.73266 350 C 648.7621 350 644.73266 345.97056 644.73266 341 L 644.73266 330.5 C 644.73266 325.52944 648.7621 321.5 653.73266 321.5 Z"/><path stroke="#a5a5a5" stroke-linecap="round" stroke-linejoin="round" stroke-width="3" d="M 653.73266 321.5 L 803.4707 321.5 C 808.4413 321.5 812.4707 325.52944 812.4707 330.5 L 812.4707 341 C 812.4707 345.97056 808.4413 350 803.4707 350 L 653.73266 350 C 648.7621 350 644.73266 345.97056 644.73266 341 L 644.73266 330.5 C 644.73266 325.52944 648.7621 321.5 653.73266 321.5 Z"/><text fill="#000" transform="translate(649.73266 328.07596)"><tspan x="28.883" y="12" font-family="Helvetica Neue" font-size="12" font-weight="bold" textLength="99.972">generate_metrics</tspan></text><rect width="82.5" height="28.5" x="396.619" y="220.5" fill="#ffff80"/><rect width="82.5" height="28.5" x="396.619" y="220.5" stroke="#a5a5a5" stroke-linecap="round" stroke-linejoin="round" stroke-width="3"/><text fill="#000" transform="translate(401.61903 227.07596)"><tspan x="4.678" y="12" font-family="Helvetica Neue" font-size="12" font-weight="bold" textLength="63.144">Every Hour</tspan></text><line x1="437.869" x2="437.869" y1="249.75" y2="292.45" stroke="#a5a5a5" stroke-linecap="round" stroke-linejoin="round" stroke-width="1" marker-end="url(#FilledArrow_Marker)"/><line x1="437.869" x2="437.869" y1="368.4" y2="408.164" stroke="#a5a5a5" stroke-linecap="round" stroke-linejoin="round" stroke-width="1" marker-end="url(#FilledArrow_Marker)"/><line x1="522.488" x2="634.083" y1="450.714" y2="450.714" stroke="#a5a5a5" stroke-linecap="round" stroke-linejoin="round" stroke-width="1" marker-end="url(#FilledArrow_Marker)"/><line x1="728.602" x2="728.602" y1="417.314" y2="379.05" stroke="#a5a5a5" stroke-linecap="round" stroke-linejoin="round" stroke-width="1" marker-end="url(#FilledArrow_Marker)"/><path fill="#c0ffff" d="M 423.11903 303.1 L 452.61903 303.1 C 454.2759 303.1 455.61903 304.44315 455.61903 306.1 L 455.61903 318.5 C 455.61903 320.15685 454.2759 321.5 452.61903 321.5 L 423.11903 321.5 C 421.46217 321.5 420.11903 320.15685 420.11903 318.5 L 420.11903 306.1 C 420.11903 304.44315 421.46217 303.1 423.11903 303.1 Z"/><path stroke="#a5a5a5" stroke-linecap="round" stroke-linejoin="round" stroke-width="3" d="M 423.11903 303.1 L 452.61903 303.1 C 454.2759 303.1 455.61903 304.44315 455.61903 306.1 L 455.61903 318.5 C 455.61903 320.15685 454.2759 321.5 452.61903 321.5 L 423.11903 321.5 C 421.46217 321.5 420.11903 320.15685 420.11903 318.5 L 420.11903 306.1 C 420.11903 304.44315 421.46217 303.1 423.11903 303.1 Z"/><text fill="#000" transform="translate(425.11903 307.188)"><tspan x="6.898" y="8" font-family="Helvetica Neue" font-size="8" font-weight="500" textLength="11.704">pre</tspan></text><path fill="#c0ffff" d="M 423.11903 350 L 452.61903 350 C 454.2759 350 455.61903 351.34315 455.61903 353 L 455.61903 365.4 C 455.61903 367.05685 454.2759 368.4 452.61903 368.4 L 423.11903 368.4 C 421.46217 368.4 420.11903 367.05685 420.11903 365.4 L 420.11903 353 C 420.11903 351.34315 421.46217 350 423.11903 350 Z"/><path stroke="#a5a5a5" stroke-linecap="round" stroke-linejoin="round" stroke-width="3" d="M 423.11903 350 L 452.61903 350 C 454.2759 350 455.61903 351.34315 455.61903 353 L 455.61903 365.4 C 455.61903 367.05685 454.2759 368.4 452.61903 368.4 L 423.11903 368.4 C 421.46217 368.4 420.11903 367.05685 420.11903 365.4 L 420.11903 353 C 420.11903 351.34315 421.46217 350 423.11903 350 Z"/><text fill="#000" transform="translate(425.11903 354.088)"><tspan x="4.822" y="8" font-family="Helvetica Neue" font-size="8" font-weight="500" textLength="15.856">post</tspan></text><path fill="#c0ffff" d="M 713.8517 350 L 743.3517 350 C 745.0085 350 746.3517 351.34315 746.3517 353 L 746.3517 365.4 C 746.3517 367.05685 745.0085 368.4 743.3517 368.4 L 713.8517 368.4 C 712.1948 368.4 710.8517 367.05685 710.8517 365.4 L 710.8517 353 C 710.8517 351.34315 712.1948 350 713.8517 350 Z"/><path stroke="#a5a5a5" stroke-linecap="round" stroke-linejoin="round" stroke-width="3" d="M 713.8517 350 L 743.3517 350 C 745.0085 350 746.3517 351.34315 746.3517 353 L 746.3517 365.4 C 746.3517 367.05685 745.0085 368.4 743.3517 368.4 L 713.8517 368.4 C 712.1948 368.4 710.8517 367.05685 710.8517 365.4 L 710.8517 353 C 710.8517 351.34315 712.1948 350 713.8517 350 Z"/><text fill="#000" transform="translate(715.8517 354.088)"><tspan x="4.822" y="8" font-family="Helvetica Neue" font-size="8" font-weight="500" textLength="15.856">post</tspan></text><path fill="#c0ffff" d="M 713.8517 303.1 L 743.3517 303.1 C 745.0085 303.1 746.3517 304.44315 746.3517 306.1 L 746.3517 318.5 C 746.3517 320.15685 745.0085 321.5 743.3517 321.5 L 713.8517 321.5 C 712.1948 321.5 710.8517 320.15685 710.8517 318.5 L 710.8517 306.1 C 710.8517 304.44315 712.1948 303.1 713.8517 303.1 Z"/><path stroke="#a5a5a5" stroke-linecap="round" stroke-linejoin="round" stroke-width="3" d="M 713.8517 303.1 L 743.3517 303.1 C 745.0085 303.1 746.3517 304.44315 746.3517 306.1 L 746.3517 318.5 C 746.3517 320.15685 745.0085 321.5 743.3517 321.5 L 713.8517 321.5 C 712.1948 321.5 710.8517 320.15685 710.8517 318.5 L 710.8517 306.1 C 710.8517 304.44315 712.1948 303.1 713.8517 303.1 Z"/><text fill="#000" transform="translate(715.8517 307.188)"><tspan x="6.898" y="8" font-family="Helvetica Neue" font-size="8" font-weight="500" textLength="11.704">pre</tspan></text><path fill="#dadada" d="M 423.11903 418.06356 L 452.61903 418.06356 C 454.2759 418.06356 455.61903 419.4067 455.61903 421.06356 L 455.61903 433.46356 C 455.61903 435.1204 454.2759 436.46356 452.61903 436.46356 L 423.11903 436.46356 C 421.4622 436.46356 420.11903 435.1204 420.11903 433.46356 L 420.11903 421.06356 C 420.11903 419.4067 421.4622 418.06356 423.11903 418.06356 Z"/><path stroke="#a5a5a5" stroke-linecap="round" stroke-linejoin="round" stroke-width="3" d="M 423.11903 418.06356 L 452.61903 418.06356 C 454.2759 418.06356 455.61903 419.4067 455.61903 421.06356 L 455.61903 433.46356 C 455.61903 435.1204 454.2759 436.46356 452.61903 436.46356 L 423.11903 436.46356 C 421.4622 436.46356 420.11903 435.1204 420.11903 433.46356 L 420.11903 421.06356 C 420.11903 419.4067 421.4622 418.06356 423.11903 418.06356 Z"/><text fill="#000" transform="translate(425.11903 422.15156)"><tspan x="6.898" y="8" font-family="Helvetica Neue" font-size="8" font-weight="500" textLength="11.704">pre</tspan></text><path fill="#dadada" d="M 423.11903 464.96356 L 452.61903 464.96356 C 454.2759 464.96356 455.61903 466.3067 455.61903 467.96356 L 455.61903 480.36356 C 455.61903 482.0204 454.2759 483.36356 452.61903 483.36356 L 423.11903 483.36356 C 421.4622 483.36356 420.11903 482.0204 420.11903 480.36356 L 420.11903 467.96356 C 420.11903 466.3067 421.4622 464.96356 423.11903 464.96356 Z"/><path stroke="#a5a5a5" stroke-linecap="round" stroke-linejoin="round" stroke-width="3" d="M 423.11903 464.96356 L 452.61903 464.96356 C 454.2759 464.96356 455.61903 466.3067 455.61903 467.96356 L 455.61903 480.36356 C 455.61903 482.0204 454.2759 483.36356 452.61903 483.36356 L 423.11903 483.36356 C 421.4622 483.36356 420.11903 482.0204 420.11903 480.36356 L 420.11903 467.96356 C 420.11903 466.3067 421.4622 464.96356 423.11903 464.96356 Z"/><text fill="#000" transform="translate(425.11903 469.05156)"><tspan x="4.822" y="8" font-family="Helvetica Neue" font-size="8" font-weight="500" textLength="15.856">post</tspan></text><path fill="#dadada" d="M 713.8517 464.96356 L 743.3517 464.96356 C 745.00855 464.96356 746.3517 466.3067 746.3517 467.96356 L 746.3517 480.36356 C 746.3517 482.0204 745.00855 483.36356 743.3517 483.36356 L 713.8517 483.36356 C 712.1948 483.36356 710.8517 482.0204 710.8517 480.36356 L 710.8517 467.96356 C 710.8517 466.3067 712.1948 464.96356 713.8517 464.96356 Z"/><path stroke="#a5a5a5" stroke-linecap="round" stroke-linejoin="round" stroke-width="3" d="M 713.8517 464.96356 L 743.3517 464.96356 C 745.00855 464.96356 746.3517 466.3067 746.3517 467.96356 L 746.3517 480.36356 C 746.3517 482.0204 745.00855 483.36356 743.3517 483.36356 L 713.8517 483.36356 C 712.1948 483.36356 710.8517 482.0204 710.8517 480.36356 L 710.8517 467.96356 C 710.8517 466.3067 712.1948 464.96356 713.8517 464.96356 Z"/><text fill="#000" transform="translate(715.8517 469.05156)"><tspan x="4.822" y="8" font-family="Helvetica Neue" font-size="8" font-weight="500" textLength="15.856">post</tspan></text><path fill="#dadada" d="M 713.8517 418.06356 L 743.3517 418.06356 C 745.00855 418.06356 746.3517 419.4067 746.3517 421.06356 L 746.3517 433.46356 C 746.3517 435.1204 745.00855 436.46356 743.3517 436.46356 L 713.8517 436.46356 C 712.1948 436.46356 710.8517 435.1204 710.8517 433.46356 L 710.8517 421.06356 C 710.8517 419.4067 712.1948 418.06356 713.8517 418.06356 Z"/><path stroke="#a5a5a5" stroke-linecap="round" stroke-linejoin="round" stroke-width="3" d="M 713.8517 418.06356 L 743.3517 418.06356 C 745.00855 418.06356 746.3517 419.4067 746.3517 421.06356 L 746.3517 433.46356 C 746.3517 435.1204 745.00855 436.46356 743.3517 436.46356 L 713.8517 436.46356 C 712.1948 436.46356 710.8517 435.1204 710.8517 433.46356 L 710.8517 421.06356 C 710.8517 419.4067 712.1948 418.06356 713.8517 418.06356 Z"/><text fill="#000" transform="translate(715.8517 422.15156)"><tspan x="6.898" y="8" font-family="Helvetica Neue" font-size="8" font-weight="500" textLength="11.704">pre</tspan></text></g></g></svg>

<svg xmlns="http://www.w3.org/2000/svg" width="616" height="266pt" viewBox="352 219 462 266"><defs><marker id="a" color="#a5a5a5" markerHeight="8" markerUnits="strokeWidth" markerWidth="10" orient="auto" overflow="visible" viewBox="-1 -4 10 8"><path fill="currentColor" stroke="currentColor" d="M8 0 0-3v6Z"/></marker></defs><g fill="none"><path fill="#c0ffff" d="M363 321.5h149.738a9 9 0 0 1 9 9V341a9 9 0 0 1-9 9H363a9 9 0 0 1-9-9v-10.5a9 9 0 0 1 9-9Z"/><path stroke="#a5a5a5" stroke-linecap="round" stroke-linejoin="round" stroke-width="3" d="M363 321.5h149.738a9 9 0 0 1 9 9V341a9 9 0 0 1-9 9H363a9 9 0 0 1-9-9v-10.5a9 9 0 0 1 9-9Z"/><text fill="#000" transform="translate(359 328.076)"><tspan x="59.663" y="12" font-family="Helvetica Neue" font-size="12" font-weight="bold" textLength="38.412">collect</tspan></text><path fill="#dadada" d="M653.733 436.464H803.47a9 9 0 0 1 9 9v10.5a9 9 0 0 1-9 9H653.733a9 9 0 0 1-9-9v-10.5a9 9 0 0 1 9-9Z"/><path stroke="#a5a5a5" stroke-linecap="round" stroke-linejoin="round" stroke-width="3" d="M653.733 436.464H803.47a9 9 0 0 1 9 9v10.5a9 9 0 0 1-9 9H653.733a9 9 0 0 1-9-9v-10.5a9 9 0 0 1 9-9Z"/><text fill="#000" transform="translate(649.733 443.04)"><tspan x="56.207" y="12" font-family="Helvetica Neue" font-size="12" font-weight="bold" textLength="45.324">cleanup</tspan></text><path fill="#dadada" d="M363 436.464h149.738a9 9 0 0 1 9 9v10.5a9 9 0 0 1-9 9H363a9 9 0 0 1-9-9v-10.5a9 9 0 0 1 9-9Z"/><path stroke="#a5a5a5" stroke-linecap="round" stroke-linejoin="round" stroke-width="3" d="M363 436.464h149.738a9 9 0 0 1 9 9v10.5a9 9 0 0 1-9 9H363a9 9 0 0 1-9-9v-10.5a9 9 0 0 1 9-9Z"/><text fill="#000" transform="translate(359 443.04)"><tspan x="40.991" y="12" font-family="Helvetica Neue" font-size="12" font-weight="bold" textLength="75.756">cleanup_plan</tspan></text><path fill="#c0ffff" d="M653.733 321.5H803.47a9 9 0 0 1 9 9V341a9 9 0 0 1-9 9H653.733a9 9 0 0 1-9-9v-10.5a9 9 0 0 1 9-9Z"/><path stroke="#a5a5a5" stroke-linecap="round" stroke-linejoin="round" stroke-width="3" d="M653.733 321.5H803.47a9 9 0 0 1 9 9V341a9 9 0 0 1-9 9H653.733a9 9 0 0 1-9-9v-10.5a9 9 0 0 1 9-9Z"/><text fill="#000" transform="translate(649.733 328.076)"><tspan x="28.883" y="12" font-family="Helvetica Neue" font-size="12" font-weight="bold" textLength="99.972">generate_metrics</tspan></text><path fill="#ffff80" d="M396.619 220.5h82.5V249h-82.5z"/><path stroke="#a5a5a5" stroke-linecap="round" stroke-linejoin="round" stroke-width="3" d="M396.619 220.5h82.5V249h-82.5z"/><text fill="#000" transform="translate(401.619 227.076)"><tspan x="4.678" y="12" font-family="Helvetica Neue" font-size="12" font-weight="bold" textLength="63.144">Every Hour</tspan></text><path stroke="#a5a5a5" stroke-linecap="round" stroke-linejoin="round" marker-end="url(#a)" d="M437.869 249.75v42.7"/><path stroke="#a5a5a5" stroke-linecap="round" stroke-linejoin="round" marker-end="url(#a)" d="M437.869 368.4v39.764"/><path stroke="#a5a5a5" stroke-linecap="round" stroke-linejoin="round" marker-end="url(#a)" d="M522.488 450.714h111.595"/><path stroke="#a5a5a5" stroke-linecap="round" stroke-linejoin="round" marker-end="url(#a)" d="M728.602 417.314V379.05"/><path fill="#c0ffff" d="M423.119 303.1h29.5a3 3 0 0 1 3 3v12.4a3 3 0 0 1-3 3h-29.5a3 3 0 0 1-3-3v-12.4a3 3 0 0 1 3-3Z"/><path stroke="#a5a5a5" stroke-linecap="round" stroke-linejoin="round" stroke-width="3" d="M423.119 303.1h29.5a3 3 0 0 1 3 3v12.4a3 3 0 0 1-3 3h-29.5a3 3 0 0 1-3-3v-12.4a3 3 0 0 1 3-3Z"/><text fill="#000" transform="translate(425.119 307.188)"><tspan x="6.898" y="8" font-family="Helvetica Neue" font-size="8" font-weight="500" textLength="11.704">pre</tspan></text><path fill="#c0ffff" d="M423.119 350h29.5a3 3 0 0 1 3 3v12.4a3 3 0 0 1-3 3h-29.5a3 3 0 0 1-3-3V353a3 3 0 0 1 3-3Z"/><path stroke="#a5a5a5" stroke-linecap="round" stroke-linejoin="round" stroke-width="3" d="M423.119 350h29.5a3 3 0 0 1 3 3v12.4a3 3 0 0 1-3 3h-29.5a3 3 0 0 1-3-3V353a3 3 0 0 1 3-3Z"/><text fill="#000" transform="translate(425.119 354.088)"><tspan x="4.822" y="8" font-family="Helvetica Neue" font-size="8" font-weight="500" textLength="15.856">post</tspan></text><path fill="#c0ffff" d="M713.852 350h29.5a3 3 0 0 1 3 3v12.4a3 3 0 0 1-3 3h-29.5a3 3 0 0 1-3-3V353a3 3 0 0 1 3-3Z"/><path stroke="#a5a5a5" stroke-linecap="round" stroke-linejoin="round" stroke-width="3" d="M713.852 350h29.5a3 3 0 0 1 3 3v12.4a3 3 0 0 1-3 3h-29.5a3 3 0 0 1-3-3V353a3 3 0 0 1 3-3Z"/><text fill="#000" transform="translate(715.852 354.088)"><tspan x="4.822" y="8" font-family="Helvetica Neue" font-size="8" font-weight="500" textLength="15.856">post</tspan></text><path fill="#c0ffff" d="M713.852 303.1h29.5a3 3 0 0 1 3 3v12.4a3 3 0 0 1-3 3h-29.5a3 3 0 0 1-3-3v-12.4a3 3 0 0 1 3-3Z"/><path stroke="#a5a5a5" stroke-linecap="round" stroke-linejoin="round" stroke-width="3" d="M713.852 303.1h29.5a3 3 0 0 1 3 3v12.4a3 3 0 0 1-3 3h-29.5a3 3 0 0 1-3-3v-12.4a3 3 0 0 1 3-3Z"/><text fill="#000" transform="translate(715.852 307.188)"><tspan x="6.898" y="8" font-family="Helvetica Neue" font-size="8" font-weight="500" textLength="11.704">pre</tspan></text><path fill="#dadada" d="M423.119 418.064h29.5a3 3 0 0 1 3 3v12.4a3 3 0 0 1-3 3h-29.5a3 3 0 0 1-3-3v-12.4a3 3 0 0 1 3-3Z"/><path stroke="#a5a5a5" stroke-linecap="round" stroke-linejoin="round" stroke-width="3" d="M423.119 418.064h29.5a3 3 0 0 1 3 3v12.4a3 3 0 0 1-3 3h-29.5a3 3 0 0 1-3-3v-12.4a3 3 0 0 1 3-3Z"/><text fill="#000" transform="translate(425.119 422.152)"><tspan x="6.898" y="8" font-family="Helvetica Neue" font-size="8" font-weight="500" textLength="11.704">pre</tspan></text><path fill="#dadada" d="M423.119 464.964h29.5a3 3 0 0 1 3 3v12.4a3 3 0 0 1-3 3h-29.5a3 3 0 0 1-3-3v-12.4a3 3 0 0 1 3-3Z"/><path stroke="#a5a5a5" stroke-linecap="round" stroke-linejoin="round" stroke-width="3" d="M423.119 464.964h29.5a3 3 0 0 1 3 3v12.4a3 3 0 0 1-3 3h-29.5a3 3 0 0 1-3-3v-12.4a3 3 0 0 1 3-3Z"/><text fill="#000" transform="translate(425.119 469.052)"><tspan x="4.822" y="8" font-family="Helvetica Neue" font-size="8" font-weight="500" textLength="15.856">post</tspan></text><path fill="#dadada" d="M713.852 464.964h29.5a3 3 0 0 1 3 3v12.4a3 3 0 0 1-3 3h-29.5a3 3 0 0 1-3-3v-12.4a3 3 0 0 1 3-3Z"/><path stroke="#a5a5a5" stroke-linecap="round" stroke-linejoin="round" stroke-width="3" d="M713.852 464.964h29.5a3 3 0 0 1 3 3v12.4a3 3 0 0 1-3 3h-29.5a3 3 0 0 1-3-3v-12.4a3 3 0 0 1 3-3Z"/><text fill="#000" transform="translate(715.852 469.052)"><tspan x="4.822" y="8" font-family="Helvetica Neue" font-size="8" font-weight="500" textLength="15.856">post</tspan></text><path fill="#dadada" d="M713.852 418.064h29.5a3 3 0 0 1 3 3v12.4a3 3 0 0 1-3 3h-29.5a3 3 0 0 1-3-3v-12.4a3 3 0 0 1 3-3Z"/><path stroke="#a5a5a5" stroke-linecap="round" stroke-linejoin="round" stroke-width="3" d="M713.852 418.064h29.5a3 3 0 0 1 3 3v12.4a3 3 0 0 1-3 3h-29.5a3 3 0 0 1-3-3v-12.4a3 3 0 0 1 3-3Z"/><text fill="#000" transform="translate(715.852 422.152)"><tspan x="6.898" y="8" font-family="Helvetica Neue" font-size="8" font-weight="500" textLength="11.704">pre</tspan></text></g></svg>
